iphone/Maps/Images.xcassets/Interface/Search/Categories/police.imageset/police_dark.svg

<svg height="28" viewBox="0 0 28 28" width="28" xmlns="http://www.w3.org/2000/svg"><g fill="none" opacity=".898664"><circle cx="14" cy="14" fill="#717065" fill-rule="evenodd" r="14"/><path d="m14 5.833275-6.68185 2.96975v4.4545667c0 4.1204333 2.8508667 7.9735833 6.68185 8.9091333 3.8308667-.9354567 6.68185-4.7885833 6.68185-8.9091333v-4.4545667zm1.85605 8.60475.668185 2.8806167-2.5242-1.5219167-2.5242 1.5219167.668185-2.87315-2.22728333-1.9229 2.94000003-.25242 1.1433333-2.7098167 1.1433333 2.7024667 2.94.25242-2.2272833 1.9229z" fill="#000"/></g></svg>

<?xml version="1.0" encoding="UTF-8"?>
<svg width="28px" height="28px" viewBox="0 0 28 28" version="1.1" xmlns="http://www.w3.org/2000/svg" xmlns:xlink="http://www.w3.org/1999/xlink">
    <title>police_dark</title>
    <g id="police_dark" stroke="none" fill="none" fill-rule="evenodd">
        <path d="M14,0 C21.7319865,0 28,6.2680135 28,14 C28,21.7319865 21.7319865,28 14,28 C6.2680135,28 0,21.7319865 0,14 C0,6.2680135 6.2680135,0 14,0 Z M14,5.833275 L7.31815,8.803025 L7.31815,13.2575917 C7.31815,17.378025 10.1690167,21.231175 14,22.166725 C17.8308667,21.2312683 20.68185,17.3781417 20.68185,13.2575917 L20.68185,8.803025 L14,5.833275 Z M14.00007,9.560355 L15.1434033,12.2628217 L18.0834033,12.5152417 L15.85612,14.4381417 L16.524235,17.3186417 L14.000035,15.796725 L11.475835,17.3186417 L12.14402,14.4454917 L9.91673667,12.5225917 L12.8567367,12.2701717 L14.00007,9.560355 Z" id="Shape" fill="#717065"></path>
    </g>
</svg>
